static/img/mobile/scrollbar.svg

<svg fill="none" height="260" viewBox="0 0 961 260" width="961" xmlns="http://www.w3.org/2000/svg" xmlns:xlink="http://www.w3.org/1999/xlink"><clipPath id="a"><rect height="32" rx="4" width="233" x="482.5" y="114"/></clipPath><path d="m0 0h961v260h-961z" fill="#f1f1f6"/><rect fill="#e0e1e9" height="233" rx="4" width="32" x="345.5" y="13.5"/><path d="m345.5 17.5c0-2.2091 1.791-4 4-4h24c2.209 0 4 1.7909 4 4v24c0 2.2091-1.791 4-4 4h-24c-2.209 0-4-1.7909-4-4z" fill="#353a40"/><path d="m366.69 31-4.22-4.58c-.49-.53-1.45-.53-1.94 0l-4.22 4.58c-.32.35-.4.83-.22 1.25.2.45.67.75 1.19.75h8.43c.52 0 .99-.29 1.19-.75.19-.42.1-.91-.22-1.25z" fill="#fff"/><rect fill="#464b52" height="111" rx="4" width="8" x="357.5" y="49.5"/><path d="m345.5 218.5c0-2.209 1.791-4 4-4h24c2.209 0 4 1.791 4 4v24c0 2.209-1.791 4-4 4h-24c-2.209 0-4-1.791-4-4z" fill="#353a40"/><path d="m366.901 227.75c-.106-.226-.274-.417-.485-.55s-.456-.202-.705-.2h-8.43c-.52 0-.99.29-1.19.75-.19.43-.1.91.22 1.25l4.22 4.58c.24.26.6.42.97.42s.73-.15.97-.42l4.22-4.58c.32-.35.4-.83.22-1.25z" fill="#fff"/><g clip-path="url(#a)"><rect fill="#e0e1e9" height="32" rx="4" width="233" x="482.5" y="114"/><path d="m486.5 146c-2.209 0-4-1.791-4-4v-24c0-2.209 1.791-4 4-4h28v32z" fill="#353a40"/><path d="m500.001 124.81-4.58 4.22c-.53.49-.53 1.45 0 1.94l4.58 4.22c.35.32.83.4 1.25.22.45-.2.75-.67.75-1.19v-8.43c0-.52-.29-.99-.75-1.19-.42-.19-.91-.1-1.25.22z" fill="#fff"/><rect fill="#464b52" height="8" rx="4" width="103" x="526.5" y="126"/><path d="m683.5 146v-32h28c2.209 0 4 1.791 4 4v24c0 2.209-1.791 4-4 4z" fill="#353a40"/><path d="m696.75 124.6c-.226.106-.417.274-.55.485s-.202.456-.2.705v8.43c0 .52.29.99.75 1.19.43.19.91.1 1.25-.22l4.58-4.22c.26-.24.42-.6.42-.97s-.15-.73-.42-.97l-4.58-4.22c-.35-.32-.83-.4-1.25-.22z" fill="#fff"/></g></svg>

<svg width="961" height="260" viewBox="0 0 961 260" fill="none" xmlns="http://www.w3.org/2000/svg">
<rect width="961" height="260" fill="#F1F1F6"/>
<rect x="345.5" y="13.5" width="32" height="233" rx="4" fill="#E0E1E9"/>
<path d="M345.5 17.5C345.5 15.2909 347.291 13.5 349.5 13.5H373.5C375.709 13.5 377.5 15.2909 377.5 17.5V41.5C377.5 43.7091 375.709 45.5 373.5 45.5H349.5C347.291 45.5 345.5 43.7091 345.5 41.5V17.5Z" fill="#353A40"/>
<path d="M366.69 31L362.47 26.42C361.98 25.89 361.02 25.89 360.53 26.42L356.31 31C355.99 31.35 355.91 31.83 356.09 32.25C356.29 32.7 356.76 33 357.28 33H365.71C366.23 33 366.7 32.71 366.9 32.25C367.09 31.83 367 31.34 366.68 31H366.69Z" fill="white"/>
<rect x="357.5" y="49.5" width="8" height="111" rx="4" fill="#464B52"/>
<path d="M345.5 218.5C345.5 216.291 347.291 214.5 349.5 214.5H373.5C375.709 214.5 377.5 216.291 377.5 218.5V242.5C377.5 244.709 375.709 246.5 373.5 246.5H349.5C347.291 246.5 345.5 244.709 345.5 242.5V218.5Z" fill="#353A40"/>
<path d="M366.901 227.75C366.795 227.524 366.627 227.333 366.416 227.2C366.205 227.067 365.96 226.998 365.711 227H357.281C356.761 227 356.291 227.29 356.091 227.75C355.901 228.18 355.991 228.66 356.311 229L360.531 233.58C360.771 233.84 361.131 234 361.501 234C361.871 234 362.231 233.85 362.471 233.58L366.691 229C367.011 228.65 367.091 228.17 366.911 227.75H366.901Z" fill="white"/>
<g clip-path="url(#clip0_431_73325)">
<rect x="482.5" y="114" width="233" height="32" rx="4" fill="#E0E1E9"/>
<path d="M486.5 146C484.291 146 482.5 144.209 482.5 142L482.5 118C482.5 115.791 484.291 114 486.5 114L514.5 114L514.5 146L486.5 146Z" fill="#353A40"/>
<path d="M500.001 124.81L495.421 129.03C494.891 129.52 494.891 130.48 495.421 130.97L500.001 135.19C500.351 135.51 500.831 135.59 501.251 135.41C501.701 135.21 502.001 134.74 502.001 134.22L502.001 125.79C502.001 125.27 501.711 124.8 501.251 124.6C500.831 124.41 500.341 124.5 500.001 124.82L500.001 124.81Z" fill="white"/>
<rect x="526.5" y="126" width="103" height="8" rx="4" fill="#464B52"/>
<path d="M683.5 146L683.5 114L711.5 114C713.709 114 715.5 115.791 715.5 118L715.5 142C715.5 144.209 713.709 146 711.5 146L683.5 146Z" fill="#353A40"/>
<path d="M696.75 124.6C696.524 124.706 696.333 124.874 696.2 125.085C696.067 125.296 695.998 125.541 696 125.79L696 134.22C696 134.74 696.29 135.21 696.75 135.41C697.18 135.6 697.66 135.51 698 135.19L702.58 130.97C702.84 130.73 703 130.37 703 130C703 129.63 702.85 129.27 702.58 129.03L698 124.81C697.65 124.49 697.17 124.41 696.75 124.59L696.75 124.6Z" fill="white"/>
</g>
<defs>
<clipPath id="clip0_431_73325">
<rect x="482.5" y="114" width="233" height="32" rx="4" fill="white"/>
</clipPath>
</defs>
</svg>
